packages/dnb-ui-lib/assets/icons/bankid_on_mobile_medium.svg

<svg width="24" height="24" viewBox="0 0 24 24" fill="none" xmlns="http://www.w3.org/2000/svg">
<path fill-rule="evenodd" clip-rule="evenodd" d="M1 2.75C1 1.23122 2.23122 0 3.75 0H12.5C14.0188 0 15.25 1.23122 15.25 2.75V3C15.25 3.41421 14.9142 3.75 14.5 3.75C14.0858 3.75 13.75 3.41421 13.75 3V2.75C13.75 2.05964 13.1904 1.5 12.5 1.5H3.75C3.05964 1.5 2.5 2.05964 2.5 2.75V19.75C2.5 20.4404 3.05964 21 3.75 21H12.5C13.1904 21 13.75 20.4404 13.75 19.75V15.75C13.75 15.3358 14.0858 15 14.5 15C14.9142 15 15.25 15.3358 15.25 15.75V19.75C15.25 21.2688 14.0188 22.5 12.5 22.5H3.75C2.23122 22.5 1 21.2688 1 19.75V2.75ZM9.0625 17.625C9.0625 18.1434 8.64223 18.5625 8.125 18.5625C7.60777 18.5625 7.1875 18.1434 7.1875 17.625C7.1875 17.1066 7.60777 16.6875 8.125 16.6875C8.64223 16.6875 9.0625 17.1066 9.0625 17.625ZM7.375 5.9375C7.375 5.66136 7.59886 5.4375 7.875 5.4375H10.0625C10.3386 5.4375 10.5625 5.66136 10.5625 5.9375V6.0625C10.5625 6.33864 10.3386 6.5625 10.0625 6.5625H7.875C7.59886 6.5625 7.375 6.33864 7.375 6.0625V5.9375ZM17.5 5.9375C17.5 5.66136 17.7239 5.4375 18 5.4375H20.1875C20.4636 5.4375 20.6875 5.66136 20.6875 5.9375V6.0625C20.6875 6.33864 20.4636 6.5625 20.1875 6.5625H18C17.7239 6.5625 17.5 6.33864 17.5 6.0625V5.9375ZM18 7.6875C17.7239 7.6875 17.5 7.91136 17.5 8.1875V8.3125C17.5 8.58864 17.7239 8.8125 18 8.8125H20.1875C20.4636 8.8125 20.6875 8.58864 20.6875 8.3125V8.1875C20.6875 7.91136 20.4636 7.6875 20.1875 7.6875H18ZM12.4375 8.1875C12.4375 7.91136 12.6614 7.6875 12.9375 7.6875H15.125C15.4011 7.6875 15.625 7.91136 15.625 8.1875V8.3125C15.625 8.58864 15.4011 8.8125 15.125 8.8125H12.9375C12.6614 8.8125 12.4375 8.58864 12.4375 8.3125V8.1875ZM12.9375 9.9375C12.6614 9.9375 12.4375 10.1614 12.4375 10.4375V10.5625C12.4375 10.8386 12.6614 11.0625 12.9375 11.0625H15.125C15.4011 11.0625 15.625 10.8386 15.625 10.5625V10.4375C15.625 10.1614 15.4011 9.9375 15.125 9.9375H12.9375ZM7.375 10.4375C7.375 10.1614 7.59886 9.9375 7.875 9.9375H10.0625C10.3386 9.9375 10.5625 10.1614 10.5625 10.4375V10.5625C10.5625 10.8386 10.3386 11.0625 10.0625 11.0625H7.875C7.59886 11.0625 7.375 10.8386 7.375 10.5625V10.4375ZM7.875 12.1875C7.59886 12.1875 7.375 12.4114 7.375 12.6875V12.8125C7.375 13.0886 7.59886 13.3125 7.875 13.3125H10.0625C10.3386 13.3125 10.5625 13.0886 10.5625 12.8125V12.6875C10.5625 12.4114 10.3386 12.1875 10.0625 12.1875H7.875ZM17.5 12.6875C17.5 12.4114 17.7239 12.1875 18 12.1875H20.1875C20.4636 12.1875 20.6875 12.4114 20.6875 12.6875V12.8125C20.6875 13.0886 20.4636 13.3125 20.1875 13.3125H18C17.7239 13.3125 17.5 13.0886 17.5 12.8125V12.6875Z" fill="#333333"/>
</svg>

<svg width="24" height="24" viewBox="0 0 24 24" fill="none" xmlns="http://www.w3.org/2000/svg"><path fill-rule="evenodd" clip-rule="evenodd" d="M1 2.75A2.75 2.75 0 013.75 0h8.75a2.75 2.75 0 012.75 2.75V3a.75.75 0 01-1.5 0v-.25c0-.69-.56-1.25-1.25-1.25H3.75c-.69 0-1.25.56-1.25 1.25v17c0 .69.56 1.25 1.25 1.25h8.75c.69 0 1.25-.56 1.25-1.25v-4a.75.75 0 011.5 0v4a2.75 2.75 0 01-2.75 2.75H3.75A2.75 2.75 0 011 19.75v-17zm8.063 14.875a.937.937 0 11-1.875 0 .937.937 0 011.875 0zM7.375 5.937a.5.5 0 01.5-.5h2.188a.5.5 0 01.5.5v.125a.5.5 0 01-.5.5H7.874a.5.5 0 01-.5-.5v-.125zm10.125 0a.5.5 0 01.5-.5h2.188a.5.5 0 01.5.5v.125a.5.5 0 01-.5.5H18a.5.5 0 01-.5-.5v-.125zm.5 1.75a.5.5 0 00-.5.5v.126a.5.5 0 00.5.5h2.188a.5.5 0 00.5-.5v-.126a.5.5 0 00-.5-.5H18zm-5.563.5a.5.5 0 01.5-.5h2.188a.5.5 0 01.5.5v.126a.5.5 0 01-.5.5h-2.188a.5.5 0 01-.5-.5v-.126zm.5 1.75a.5.5 0 00-.5.5v.126a.5.5 0 00.5.5h2.188a.5.5 0 00.5-.5v-.126a.5.5 0 00-.5-.5h-2.188zm-5.562.5a.5.5 0 01.5-.5h2.188a.5.5 0 01.5.5v.126a.5.5 0 01-.5.5H7.874a.5.5 0 01-.5-.5v-.126zm.5 1.75a.5.5 0 00-.5.5v.126a.5.5 0 00.5.5h2.188a.5.5 0 00.5-.5v-.126a.5.5 0 00-.5-.5H7.874zm9.625.5a.5.5 0 01.5-.5h2.188a.5.5 0 01.5.5v.126a.5.5 0 01-.5.5H18a.5.5 0 01-.5-.5v-.126z" fill="#333"/></svg>
